X:1
T:Antienne a la Vierge
T:Marc-Antoine Charpentier (c.1645-1704)
T:Antienne a la Vierge
T:a2 dessus H. 32
C:Marc-Antoine Charpentier
C:(c.1645-1704)
%%score [ 1 2 ] 3
L:1/8
M:2/2
K:Bb
V:1 treble nm="Dessus I"
V:2 treble nm="Dessus II"
V:3 bass nm="Basse Continue"
V:1
 z4 B4 | c8 | B8 | Pc8 | d6 d2 | e2 f2 g2 fe | d2 =e2 f3 f | f6 =e2 | f6 c2 | d2 e2 f2 ed | %10
w: Re-|gi-|na|coe-|li, lae-|ta- * * * *|* re, al- le-|lu- *|ia, lae-|ta- * * * *|
 c2 d2 e3 e | d2 d2 g3 f | =e2 e4 e2 | f2 _ed e2 dc | B2 F2 z2 B2 | c2 B2 c4 | d6 e2 | f2 e2 f4 | %18
w: * re, al- le-|lu- ia, al- le-|lu- ia, lae-|ta- * * * * *|* re, re-|gi- na coe-|li, re-|gi- na coe-|
 g6 d2 | e2 f2 g2 fe | d2 e2 f2 ed | c4 c2 c2 | d2 =e2 f3 f | f6 =e2 | f6 B2 | c2 B2 c4 | d6 d2 | %27
w: li, lae-|ta- * * * *||* re, lae-|ta- re, al- le-|lu- *|ia, re-|gi- na coe-|li, lae-|
 e2 f2 g2 fe | d2 e2 f2 ed | c4 c2 c2 | d2 e2 f2 ed | c2 d2 e2 dc | B2 c2 dcde | Pc2 c2 z4 | z8 | %35
w: ta- * * * *||* re, lae-|ta- * * * *||* re, al- * le- *|lu- ia,||
 z8 | z4 fedc | BABc BcBc | d2 c2 Pc4 | !fermata!B8 ||[M:3/4] z4 F2 | BA Bc B2 | cB cd c2 | %43
w: |al- * * *||* le- lu-|ia,|lae-|ta- * * * *||
 dc de dc | Bc de fe | d2 B2 z2 | B2 d2 f2 | d2 B2 z2 | z2 z2 d2 | c2 A2 z2 |[M:4/4] z2 c2 cc c>d | %51
w: ||* re,|re- gi- na|coe- li,|lae-|ta- re,|Qui- a quem me- ru-|
 =B2 cd ee z2 | z4 z G/A/ B/c/B/c/ | dd z2 z c/d/ e/f/e/f/ | gf e/d/c/B/ AA z2 | %55
w: i- sti por- ta- re,|re- sur- re- * * *|* xit, re- sur- re- * * *|* xit si- * cut _ di- xit.|
 z2 e/c/d/e/ AB A2 | G2 g/e/f/g/ cd/e/ f/d/e/f/ | =BccB c2 e2- | e2 d>d dd c2 | %59
w: Al- * * * * le- lu-|ia, al- * * * * * * * * * *|* le- lu- * ia. O-|* ra pro no- bis, o-|
 d>e ff e2 d/c/d/e/ | Pc2 c2 f3 e | d2 d2 g3 f | =e2 c2 f3 f | f6 =e2 | f4 z4 | z8 | z8 | z4 fedc | %68
w: ra pro no- bis De- * * * *|* um. Al- le-|lu- ia, al- le-|lu- ia, al- le-|lu- *|ia,|||al- * * *|
 BABc BcBc | d3 d c2 c2 | z2 e4 e2 | d2 d2 dcde | f2 f2 gfed | c2 de Pd4 | c4 z4 | z4 fedc | %76
w: |* le- lu- ia,|al- le-|lu- ia, al- * le- *|lu- ia, al- * * *|* le- * lu-|ia,|al- * * *|
 BABc BcBc | d2 c2 Pc4 | B4 e4- | e2 d2 Pc4 | d8 |] %81
w: |* le- lu-|ia, al-|* le- lu-|ia.|
V:2
 z8 | z8 | z8 | z8 | z4 F4 | G8 | F8 | PG8 | A6 A2 | B2 c2 d2 cB | A2 =B2 c3 c | c6 =B2 | c6 G2 | %13
w: ||||Re-|gi-|na|coe-|li, lae-|ta- * * * *|* re, al- le-|lu- *|ia, lae-|
 A2 B2 c2 BA | G2 A2 B3 B | B6 A2 | B6 c2 | d2 e2 e2 d2 | e6 f2 | g2 f2 e2 dc | B2 c2 d2 cB | %21
w: ta- * * * *|* re, al- le-|lu- *|ia, re-|gi- na coe- *|li, lae-|ta- * * * *||
 A4 A2 A2 | B4 A2 F2 | G2 F2 G4 | A6 G2 | A2 B2 B2 A2 | B6 f2 | g2 f2 e2 dc | B2 c2 d2 cB | %29
w: * re, lae-|ta- re, re-|gi- na coe-|li, re-|gi- na coe- *|li, lae-|ta- * * * *||
 A4 A2 A2 | B2 c2 d2 cB | A2 B2 c2 BA | G2 A2 BABc | A2 A2 fedc | BABc BcBc | d2 c2 c4 | B4 dcBA | %37
w: * re, lae-|ta- * * * *||* re, al- * le- *|lu- ia, al- * * *||* le- lu-|ia, al- * * *|
 GFGA GAGA | B2 B2 B2 A2 | !fermata!B8 ||[M:3/4] z6 | z6 | z6 | z6 | z4 A2 | Bc de fe | d2 B2 z2 | %47
w: |* le- lu- *|ia,|||||lae-|ta- * * * * *|* re,|
 B2 d2 f2 | d2 B2 B2 | A2 F2 z2 |[M:4/4] z8 | z2 G2 GG G>A | ^F2 GA BB z G/A/ | %53
w: re- gi- na|coe- li, lae-|ta- re,||Qui- a quem me- ru-|i- sti por- ta- re, re- sur-|
 B/c/B/c/ d2 z A/B/ c/d/c/d/ | ed c/B/A/G/ ^FF d/B/c/d/ | GA/B/ c/A/B/c/ ^FGGF | G2 z2 z2 d2 | %57
w: re- * * * xit, re- sur- re- * * *|* xit si- * cut _ di- xit. Al- * * *|* * * * * * * * le- lu- *|ia, al-|
 de Pd2 c2 z2 | A2 B>A GG A2 | B>c d3 c B/A/B/c/ | A2 A2 z4 | z8 | z4 B3 A | G2 G2 c3 B | %64
w: le- * lu- ia.|O- ra pro no- bis, o-|ra pro no- bis De- * * *|* um.||Al- le-|lu- ia, al- le-|
 A2 A2 fedc | BABc BcBc | d2 c2 Pc4 | B4 dcBA | GFGA GAGA | B3 B A2 A2 | z2 c4 c2 | B2 B2 BABc | %72
w: lu- ia, al- * * *||* le- lu-|ia, al- * * *||* le- lu- ia,|al- le-|lu- ia, al- * le- *|
 d2 d2 edcB | A2 A2 B4 | A4 fedc | dcBA BcBA | GFGA GAGA | B2 B2 B2 A2 | B4 cdcB | A2 B2 B2 A2 | %80
w: lu- ia, al- * * *|* le- lu-|ia, al- * * *|||* le- lu- *|ia, al- * * *|* le- lu- *|
 B8 |] %81
w: ia.|
V:3
 B,2 A,2 G,2 F,2 |"^6" E,2 D,2 C,D,E,F, | G,2 A,2 B,2 A,G, | F,2 E,2"^4" F,2"^3" F,,2 | %4
 B,,2 C,2 D,2 B,,2 | E,2 D,2 E,F,G,A, | B,4"^6" A,4 |"^7""^´" G,8 | F,8 | B,4 D,2 E,2 | %10
 F,2 E,D, C,D,E,F, |"^4" G,4"^#" G,,4 |"^#" C,8 |"^5""^6" F,4 C,2 D,2 | E,2 D,C, B,,2 C,D, | %15
"^65" E,2 G,2"^4""^3" F,4 | B,2 _A,2 G,2 E,2 | B,2 C2"^4""^3" B,4 | E,6 B,2 | E,2 D,2 E,2 F,2 | %20
 G,2 F,E, D,2 E,2 | F,2 E,D,"^6" C,2 F,2 |"^53""^6R" B,,4 F,,2 G,,A,, | B,,2 D,2"^4""^#" C,4 | %24
 F,2 E,2 D,2 E,2 |"^6" C,2"^6" D,2"^6[5]" E,2 F,2 | B,,4 B,4 | E,2 D,2 E,2 F,2 | G,2 F,E, D,2 E,2 | %29
 F,2 E,D,"^6" C,2 F,2 | B,,6 B,,2 | F,2 E,D, C,2 D,2 | E,2 D,C, B,,4 | F,4 D,4 | E,4- E,E,D,C, | %35
 B,,2 E,2"^4""^3" F,4 | G,2 F,E, D,4 | E,4- E,E,D,C, | B,,2 E,2"^[4]" F,2"^[3]" F,2 | %39
 !fermata!B,,8 ||[M:3/4] B,4 A,2 | G,6 | F,6 | B,,6 | B,4 F,2 | B,4 A,2 | B,4 A,2 | B,4 A,2 | %48
 B,4 B,,2 | F,4 =E,2 |[M:4/4] F,4"^R" _E,4 |"^´" D,2"^6" E,D, C,2"^6" B,,2 | %52
"^´" A,,2 B,,A,, G,,4- | G,,G,,/A,,/ B,,/C,/B,,/C,/ D, E,2 D, |"^5""^6" C,4"^5#" D,3"^6" D, | %55
 E,2 C,2 D,C,"^4""^#" D,2 | G,,G,/F,/ E,2 _A,2 F,2 |"^#" G,"^[7]"F,"^4"G,"^#"G,,"^!" C,3 C, | %58
"^7" F,2 B,,2"^73""^6R" E,4 |"^6" D,>C, B,,B,,"^9" C,A,, B,,2 | F,4 A,,4 | B,,4"^!" G,,4 | %62
"^#" C,4 D,2 B,,2 |"^54""^#" C,8 | F,,2 F,E, D,4 | E,4- E,E,D,C, | B,,2 E,2"^4""^3" F,4 | %67
 G,2 F,E, D,4 | E,4- E,E,D,C, | B,,4 F,2 E,D, | C,6 C,2 | G,4- G,G,F,E, | D,2 B,,2 E,3 E, | %73
 F,4 B,,4 | F,E,D,C, D,C,B,,A,, | B,,3 C, D,4 | E,4- E,E,D,C, | B,,2 E,2"^4""^3" F,4 | %78
 G,4"^6" E,4 |"^73""^64" F,4"^54""^3" F,,4 | B,,8 |] %81

